X: 1
T: Maid Behind the Bar, The
C: Trad
R: Reel
M: 4/4
L: 1/8
K: D
Z: ABC transcription by Verge Roller
r: 32
|: "D" FAAB AFED | "D" FAAB A2 de | "Bm" fBBA Bcde | "D" f2 gf "A" edBd |
"D" FAAB AFED | "D" FAAB A2 de | "Bm" fBBA "G" BcdB | "A" AFEF "D" D4 :|
|: "D" fgag fdde | "D" fdad fd d2 | "Em" efga beef | "Em" gebe "A" ge e2 |
"D" faaf "F#m" bfaf | "Bm" defd "A" e2 de | "Bm" fBBA "G" BcdB | "A" AFEF "D" D4 :|
